home/.icons/Gruvbox-Plus-Dark/status/24/image-missing.svg

<svg xmlns="http://www.w3.org/2000/svg" width="24" height="24" version="1">
 <path fill="#ebdbb2" d="m3 3c-0.554 0-1 0.446-1 1v16c0 0.554 0.446 1 1 1h11l8-8v-9c0-0.554-0.446-1-1-1z"/>
 <path d="m7.6084 10 4.3916 6l3-3 3 2.0766-0.53014 0.47131-1.9243 2.4522h-11.546v-4z" style="opacity:0.3"/>
 <path d="m22 13h-7c-0.5523 0-1 0.44772-1 1v7z" style="fill:#ebdbb2"/>
 <path fill="#ebdbb2" d="m15 13c-0.5523 0-1 0.44772-1 1v0.5c0-0.5523 0.44771-1 1-1h6.5l0.5-0.5h-7z" style="opacity:0.2"/>
 <path opacity=".3" d="m22 12.978-8 8h-11c-0.554 0-1-0.446-1-1v0.5225c0 0.554 0.446 1 1 1h11l8-8v-0.522z"/>
 <path style="fill:#ebdbb2;opacity:0.2" d="M 3 3 C 2.446 3 2 3.446 2 4 L 2 4.5 C 2 3.946 2.446 3.5 3 3.5 L 21 3.5 C 21.554 3.5 22 3.946 22 4.5 L 22 4 C 22 3.446 21.554 3 21 3 L 3 3 z"/>
</svg>

<svg width="24" height="24" version="1" xmlns="http://www.w3.org/2000/svg">
  <path d="m3 3c-0.554 0-1 0.446-1 1v16c0 0.554 0.446 1 1 1h11l8-8v-9c0-0.554-0.446-1-1-1z" fill="#ebdbb2"/>
  <path d="m7.608 10 4.392 6 3-3 3 2.077-0.5301 0.4713-1.924 2.452h-11.55v-4z" fill="#7c6f64"/>
  <path d="m22 13h-7c-0.5523 0-1 0.4477-1 1v7z" fill="#ebdbb2"/>
  <path d="m15 13c-0.5523 0-1 0.4477-1 1v0.5c0-0.5523 0.4477-1 1-1h6.5l0.5-0.5h-7z" fill="#a89984" opacity=".2"/>
  <path d="m22 12.98-8 8h-11c-0.554 0-1-0.446-1-1v0.5225c0 0.554 0.446 1 1 1h11l8-8v-0.522z" fill="#ebdbb2" opacity=".3"/>
  <path d="m3 3c-0.554 0-1 0.446-1 1v0.5c0-0.554 0.446-1 1-1h18c0.554 0 1 0.446 1 1v-0.5c0-0.554-0.446-1-1-1h-18z" fill="#a89984" opacity=".2"/>
</svg>
